X:256
T: WILLST DU FREI UND LUSTIG GEHN
N: B0306
O: Europa, Mitteleuropa, Deutschland
R: Stimmungs - Lied, Freude
M: 4/4
L: 1/16
K: G
 | B6c2d4d3B | e4e3cd8
B6d2cB3AG3 | A8D4z4
B6c2d4d3B | e4e3cd8
B6d2cB3AG3 | A8D4z4
A4A3FB4B3G | c4c3BA8
B6c2d4d3c | B8A4z4
B6c2d4d3B | e4e3cd8
g6d2cB3AG3 | A8G4z4

